remix/Design/contrast-drop-2-fill.svg

<svg viewBox="0 0 24 24" fill="currentColor" xmlns="http://www.w3.org/2000/svg"><path d="M5.63604 6.63288L12 0.268921L18.364 6.63288C21.8787 10.1476 21.8787 15.8461 18.364 19.3608C14.8492 22.8755 9.15076 22.8755 5.63604 19.3608C2.12132 15.8461 2.12132 10.1476 5.63604 6.63288H5.63604ZM12 3.09735L7.05025 8.0471C5.7835 9.31385 5 11.0638 5 12.9968H19C19 11.0638 18.2165 9.31385 16.9497 8.0471L12 3.09735Z"/></svg>

<svg viewBox="0 0 24 24" xmlns="http://www.w3.org/2000/svg"><path fill="none" d="M0 0h24v24H0Z"/><path d="M5.63 6.636L11.99.27l6.36 6.36v-.001c3.51 3.51 3.51 9.21-.01 12.72 -3.52 3.51-9.22 3.51-12.73-.01 -3.52-3.52-3.52-9.22-.001-12.73Zm6.36-3.535l-4.95 4.94h0c-1.32 1.31-2.06 3.09-2.05 4.95h14v0c0-1.86-.74-3.64-2.05-4.95l-4.95-4.95Z"/></svg>
